!!!COM: Anonymous
!!!OTL: Escu d'ennuy
!!!AGN: Song; Chanson
!!!SCT: Ano3230
!!!SCA: Ano3230
!!!SMS: Leuven Chansonnier
!!!folio: 51v-52r
!!!voices: 3
**kern	**text	**text	**text	**kern	**text	**text	**text	**kern	**text	**text	**text
*staff3	*staff3	*staff3	*staff3	*staff2	*staff2	*staff2	*staff2	*staff1	*staff1	*staff1	*staff1
*Ivox	*	*	*	*Ivox	*	*	*	*Ivox	*	*	*
*I"Contra	*	*	*	*I"Tenor	*	*	*	*I"Discantus	*	*	*
*I'C	*	*	*	*I'T	*	*	*	*I'D	*	*	*
*clefF4	*	*	*	*clefF4	*	*	*	*clefG2	*	*	*
*k[b-]	*	*	*	*k[]	*	*	*	*k[]	*	*	*
*M3/1	*	*	*	*M3/1	*	*	*	*M3/1	*	*	*
*met(O)	*	*	*	*met(O)	*	*	*	*met(O)	*	*	*
=1-	=1-	=1-	=1-	=1-	=1-	=1-	=1-	=1-	=1-	=1-	=1-
!LO:TX:X=-60:Z=6:i:t=Contra&colon; flat sig. in lower 8ve only	!	!	!	!	!	!	!	!	!	!	!
1D	Es-	Tim-	Or-	1.D	Es-	Tim-	Or-	1d	Es-	Tim-	Or-
0BB-	-cu	-bre	-don-	.	.	.	.	1d	-cu	-bre	-don-
.	.	.	.	2.G	-cu	-bre	-don-	.	.	.	.
.	.	.	.	.	.	.	.	1d	den-	de	-n&eacute;s
.	.	.	.	4F	.	.	.	.	.	.	.
.	.	.	.	2G	den-	de	-n&eacute;s	.	.	.	.
=2	=2	=2	=2	=2	=2	=2	=2	=2	=2	=2	=2
1AA	den-	de	-n&eacute;s	1A	-nuy	pi-	les	1c	-nuy	pi-	les
1GG	-nuy	.	.	1B	se-	-teu-	m'a	2.d	se-	-teu-	m'a
.	.	.	.	.	.	.	.	4c	.	.	.
2r	.	.	.	2c	-me	-ses	&agrave;	1A	.	-ses	&agrave;
2AA	se-	pi-	les	[2A	de	cla-	tous-	.	.	.	.
=3	=3	=3	=3	=3	=3	=3	=3	=3	=3	=3	=3
1AA	-me	-teu-	m'a	2A]	.	.	.	2.c	-me	cla-	tous-
.	.	.	.	2F	.	.	.	.	.	.	.
.	.	.	.	.	.	.	.	4d	.	.	.
2GG	de	-ses	&agrave;	2G	.	.	.	2e	.	.	.
2D	.	cla-	tous-	2.A	.	.	.	2f	.	.	.
2C	.	.	.	.	.	.	.	2e	.	.	.
.	.	.	.	4G	.	.	.	.	.	.	.
[2D	.	.	.	2F	.	.	.	[2a	.	.	.
=4	=4	=4	=4	=4	=4	=4	=4	=4	=4	=4	=4
1D]	.	.	.	2D	.	.	.	4a]	.	.	.
.	.	.	.	.	.	.	.	4g	.	.	.
.	.	.	.	2.A	.	.	.	2f	.	.	.
2C	.	.	.	.	.	.	.	2e	.	.	.
.	.	.	.	4G	.	.	.	.	.	.	.
2D	.	.	.	2F	.	.	.	1d	de	.	.
1AA	.	.	.	1E	.	.	.	.	.	.	.
.	.	.	.	.	.	.	.	2c#i	.	.	.
=5	=5	=5	=5	=5	=5	=5	=5	=5	=5	=5	=5
1.A	plours	-mours	-jours	0D	plours	-mours	-jours	1d	plours	-mours	-jours
.	.	.	.	.	.	.	.	2r	.	.	.
2Bni	.	Cou-	.	.	.	.	.	2d	Bor-	Cou-	Ma
1c	Bor-	-ron-	Ma	2r	.	.	.	2e	-de	-ron-	tres
.	.	.	.	2C	Bor-	Cou-	Ma	2e	de	-ne	bel-
=6	=6	=6	=6	=6	=6	=6	=6	=6	=6	=6	=6
0A	-de	-ne	tres	2D	-de	.	tres	2f	sai-	d'a-	.
.	.	.	.	4C	.	-ron-	.	4e	.	.	.
.	.	.	.	4BB	.	.	.	4d	.	.	.
.	.	.	.	2AA	.	-ne	.	1c	.	.	.
.	.	.	.	2A	de	d'a-	bel-	.	.	.	.
2r	.	.	.	2B	.	.	-le	2d	.	-me-	-le
[2AA	de	d'a-	bel-	[2c	sai-	-me-	da-	[2e	.	.	da-
=7	=7	=7	=7	=7	=7	=7	=7	=7	=7	=7	=7
2AA]	.	.	.	2c]	.	.	.	2e]	.	.	.
2AA	sai-	-me-	-le	1A	-ble et	.	.	4d	.	.	.
.	.	.	.	.	.	.	.	4c	.	.	.
1E	.	.	da-	.	.	.	.	1B	.	.	.
.	.	.	.	2G#i	.	.	.	.	.	.	.
1AA	-ble et	-re	.	[1A	de	-re	-me	1A	-ble	-re	-me
=8	=8	=8	=8	=8	=8	=8	=8	=8	=8	=8	=8
2D	de	as-	-me et	1A]	.	.	.	2r	.	.	.
2AA	feb-	.	mais-	.	.	.	.	2c	et	as-	et
2BB-	-les-	-pres-	-tres-	2r	.	.	.	2d	de	-pres-	mais-
2AA	.	.	.	2c	feb-	as-	mais-	2e	feb-	.	.
1D	-se	-se&	-se	2.d	-les-	-pres-	-tres-	2.f	-les-	.	-tres-
.	.	.	.	4c	.	.	.	8eL	.	.	.
.	.	.	.	.	.	.	.	8dJ	.	.	.
=9	=9	=9	=9	=9	=9	=9	=9	=9	=9	=9	=9
2rN	.	.	.	1AN	-se	-se&	-se	1cN	-se	-se&	-se
2AA	Ung	.	Cri-	.	.	.	.	.	.	.	.
4BB-	.	.	.	1d	Ung	.	Cri-	2r	.	.	.
4C	.	.	.	.	.	.	.	.	.	.	.
2D	.	.	.	.	.	.	.	2f	Ung	.	Cri-
2E	cueur	.	-ez	2B	cueur	.	-ez	2g	cueur	.	-ez
2AA	pa-	.	ha-	2c	.	.	ha-	[2a	.	.	ha-
=10	=10	=10	=10	=10	=10	=10	=10	=10	=10	=10	=10
1F	.	.	.	2A	.	.	.	4a]	.	.	.
.	.	.	.	.	.	.	.	8gL	.	.	.
.	.	.	.	.	.	.	.	8fJ	.	.	.
.	.	.	.	2F	.	.	.	1f	.	.	.
1C	-le	.	-rou	1G	pa-	.	.	.	.	.	.
.	.	.	.	.	.	.	.	2e	pa-	.	.
2c	de	.	ou	[1F	-le	.	-rou	1f	-le	.	-rou
[2d	grant	.	guet	.	.	.	.	.	.	.	.
=11	=11	=11	=11	=11	=11	=11	=11	=11	=11	=11	=11
2d]	.	.	.	1F]	.	.	.	2r	.	.	.
1c	.	.	.	.	.	.	.	2f	de	.	ou
.	.	.	.	1D	de	.	ou	2f	grant	.	guet
2Bni	tris-	.	des-	.	.	.	.	2f	tris-	.	des-
2c	-tes-	.	-tres-	2C	grant	.	guet	2e	-tes-	.	-tres-
[2A	.	.	.	[2F	.	.	.	2c	.	.	.
=12	=12	=12	=12	=12	=12	=12	=12	=12	=12	=12	=12
2A]	.	.	.	2F]	.	.	.	2.d	.	.	.
2D	.	.	.	2F	tris-	.	des-	.	.	.	.
.	.	.	.	.	.	.	.	4c	.	.	.
2E	.	.	.	2G	-tes-	.	-tres-	2B	.	.	.
2.F	.	.	.	2F	.	.	.	1A	.	.	.
.	.	.	.	1D	.	.	.	.	.	.	.
4G	.	.	.	.	.	.	.	.	.	.	.
[2A	.	.	.	.	.	.	.	[2d	.	.	.
=13	=13	=13	=13	=13	=13	=13	=13	=13	=13	=13	=13
2A]	.	.	.	1F	.	.	.	4d]	.	.	.
.	.	.	.	.	.	.	.	4c	.	.	.
2D	.	.	.	.	.	.	.	4B	.	.	.
.	.	.	.	.	.	.	.	4A	.	.	.
1G	.	.	.	1E	.	.	.	2B	.	.	.
.	.	.	.	.	.	.	.	2.c	.	.	.
2F	.	.	.	2D	.	.	.	.	.	.	.
.	.	.	.	.	.	.	.	4B	.	.	.
[2E	.	.	.	2C	.	.	.	[2A	.	.	.
=14	=14	=14	=14	=14	=14	=14	=14	=14	=14	=14	=14
4E]	.	.	.	1BB	.	.	.	2A]	.	.	.
4D	.	.	.	.	.	.	.	.	.	.	.
4D	.	.	.	.	.	.	.	2G#i	.	.	.
4C	.	.	.	.	.	.	.	.	.	.	.
1E	-se	.	-se	0AA	-se	.	-se	[0A	-se	.	-se
2r	.	.	.	.	.	.	.	.	.	.	.
2AA	Telz	.	Au	.	.	.	.	.	.	.	.
=15	=15	=15	=15	=15	=15	=15	=15	=15	=15	=15	=15
2.C	ar-	.	lan-	2r	.	.	.	1A]	.	.	.
.	.	.	.	2AA	Telz	.	Au	.	.	.	.
4D	.	.	.	.	.	.	.	.	.	.	.
2E	.	.	.	2.C	ar-	.	lan-	2r	.	.	.
2F	-mes	.	-go-	.	.	.	.	2A	Telz	.	Au
.	.	.	.	4D	.	.	.	.	.	.	.
2G	por-	.	-reux	2E	.	.	.	2c	ar-	.	lan-
2A	-te	.	plain	2F	-mes	.	-go-	2d	-mes	.	-go-
=16	=16	=16	=16	=16	=16	=16	=16	=16	=16	=16	=16
2G	je	.	de	2G	por-	.	-reux	2e	por-	.	-reux
2c	.	.	.	2A	-te	.	plain	2f	-te	.	plain
2r	.	.	.	2G	je	.	de	2g	je	.	de
1F	A-	.	do-	2.c	A-	.	do-	2.a	A-	.	do-
.	.	.	.	4B	.	.	.	4g	.	.	.
2c	.	.	.	2A	.	.	.	2f	.	.	.
=17	=17	=17	=17	=17	=17	=17	=17	=17	=17	=17	=17
2Bni	.	.	.	2G	.	.	.	4e	.	.	.
.	.	.	.	.	.	.	.	4d	.	.	.
2.A	.	.	.	2F	.	.	.	1d	.	.	.
.	.	.	.	1E	.	.	.	.	.	.	.
4G	.	.	.	.	.	.	.	.	.	.	.
4G	.	.	.	.	.	.	.	2c#i	.	.	.
4F	.	.	.	.	.	.	.	.	.	.	.
1Al	-mours	.	-lours	1Dl	-mours	.	-lours	1dl	-mours	.	-lours
==	==	==	==	==	==	==	==	==	==	==	==
*-	*-	*-	*-	*-	*-	*-	*-	*-	*-	*-	*-
!!!RDF**kern: l = long note in original notation
!!!RDF**kern: i = editorial accidental
!!!RDF**kern: V = start of tuplet marker
!!!RDF**kern: Z = end of tuplet marker
!!!RDF**kern: N = signum congruentiae
!!!ENC: Jesse Rodin 16 April 2018
!!!END: 2018/04/17/
!!!EED: Jesse Rodin
!!!EED2: David Burn
!!!EED3: Fabrice Fitch
!!!EED4: Adrian Armstrong
!!!EEV: 2018/07/27/
!!!ONB: Translated from MusicXML and edited on 2018/07/27/ by Craig Sapp
!!muse2ps: C^@{SMS} (@{folio})\nEd. @{EED}, with help from @{EED4}, @{EED2}, and @{EED3}^v95,95,150Q16z18l2600
